X:1
T:Astro del ciel
T: Franz Xaver Gruber,
T:Astro del ciel, pargol divin, mite agnello redentor, tu di stirpe regale decor tu virgineo, mistico fior, luce dona alle menti, pace infondi nei cuor.
T:Astro del ciel, pargol divin, mite agnello redentor, tu disceso a scontare l’error, tu sol nato a parlare d’amor, luce dona alle menti, pace infondi nei cuor.
T:Pubblico dominio
T:Pubblico dominio
Z:Pubblico dominio
%%score 1 2 3 4
L:1/8
Q:1/4=60
M:3/4
K:C
V:1 treble nm="Soprano" snm="S."
V:2 treble nm="Alto" snm="A."
V:3 bass nm="Tenor" snm="T."
V:4 bass nm="Bass" snm="B."
V:1
"^Adagio" G>AG E3 | G>AG E3 | d2 d B2 B | c2 c G3 | A2 A c>BA | G>AG E3 | A2 A c>BA | G>AG E3 |: %8
 d2 d f>dB | c3 e3 | c>GE G>FD |1 G6 :|2 !fermata!C6 |] %13
V:2
 E>FE C3 | E>FE C3 | B2 B G2 G | G2 G E3 | F2 F A>GF | E>FE E3 | F2 FA>GF | E>FE E3 |: B2 B c>cB | %9
w: |||||||||
w: A\- stro del ciel,|Par\- gol di\- vin,|mi\- te~A\- gnel\- lo|Re\- den\- tor:|Tu che~i va\- ti da|lun\- gi so\- gnar,|Tu che~an\- ge\- li\- che|vo\- ci nun\- ziar:|Lu\- ce do\- na~al\- le|
 c3 c3 | G>FE D>DB, |1 C6 :|2 !fermata!C6 |] %13
w: ||||
w: men\- ti,|pa\- ce in\- fon\- di nei|cuor,|cuor.|
V:3
 C>C C G,>A,G, | C>C C G,>A,G, | G,2 G, F,2 F, | E,2 E, C,3 | C2 C C>CC | C>C C G,>A,G, | %6
 C2 C C>CC | C>CC G,>A,G, |: G,2 G, A,>A,G, | G,>B,A, G,3 | E>A,C B,>B,G, |1 G,6 :|2 G,6 |] %13
V:4
 C,>C, C, C,3 | C,>C, C, C,3 | G,,2 G,, G,,2 G,, | C,2 C, C,3 | F,2 F, F,>F,F, | C,>C, C, C,3 | %6
 F,2 F, F,>F,F, | C,>C,C, C,3 |: G,2 G, D,>F,F, | E,>G,F, C,2 z | G,>G,G, G,>G,F, |1 E,6 :|2 %12
 [C,E,]6 |] %13

